X: 1
T: Kitchen Reel
C: Ralph Page
R: reel
Z: 2012 John Chambers <jc:trillian.mit.edu>
B: Northern Junket, v.8, #8, May 1966
B: Northern Junket, v.9, #6, Oct. 1968
M: C|
L: 1/8
K: A
e>d |\
cAce a2e2 | fgaf e2c2 | cAce afec | d2B2 B2ed |\
cAce a2e2 | fgaf e2c2 | ceae gabg | a2a2 a2 :|
|: e2 |\
c'4 c'2b2 | a6 c2 | dcde f2d2 | B6 d2 |\
b4 b2a2 | g6 e2 | d2e2 f2e2 | c6 e2 |
c'4c'3b | a6 c2 | A2c2 e2a2 | f6 d2 |\
B2d2 f2b2 | A2c2 e2a2 | BABc defg | a2a2 a2 |]
